X:10
T:Lilly. JJo8.010, The
B:J.Johnson Choice Collection Vol 8 1758
Z:vmp.Simon Wilson 2013 www.village-music-project.org.uk
M:C|
L:1/8
Q:1/2=90
K:D
|:A|dcdAB2AG|F2ED E/E/E EA|dcdAB2AG|EDEF D/D/DD:|
|:A|FDADF2FA|FDAD E/E/E EA|FDADF2FA|EDEF D/D/DD:|
|:A|dcdAB2de|f2ed e/e/e ea|gfedB2AF|EDEF D/D/DD:|

